icon/fa/tv.svg

<svg xmlns="http://www.w3.org/2000/svg" viewBox="0 0 640 512"><!--! Font Awesome Free 6.1.2 by @fontawesome - https://fontawesome.com License - https://fontawesome.com/license/free (Icons: CC BY 4.0, Fonts: SIL OFL 1.1, Code: MIT License) Copyright 2022 Fonticons, Inc.--><path d="M512 448H127.1c-16.8 0-31.1 14.3-31.1 31.1s14.3 32.9 31.1 32.9h384c18.6 0 32.9-14.3 32.9-32s-14.3-32-32-32zM592 0H48C21.5 0 0 21.5 0 48v320c0 26.5 21.5 48 48 48h544c26.5 0 48-21.5 48-48V48c0-26.5-21.5-48-48-48zm-16 352H64V64h512v288z"/></svg>

<svg xmlns="http://www.w3.org/2000/svg" viewBox="0 0 640 512" height="1em" width="1em">
<!--! Font Awesome Free 6.1.2 by @fontawesome - https://fontawesome.com License - https://fontawesome.com/license/free (Icons: CC BY 4.0, Fonts: SIL OFL 1.1, Code: MIT License) Copyright 2022 Fonticons, Inc.-->
  <path d="M512 448H127.1C110.3 448 96 462.3 96 479.1S110.3 512 127.1 512h384C529.7 512 544 497.7 544 480S529.7 448 512 448zM592 0h-544C21.5 0 0 21.5 0 48v320C0 394.5 21.5 416 48 416h544c26.5 0 48-21.5 48-48v-320C640 21.5 618.5 0 592 0zM576 352H64v-288h512V352z"/>
</svg>
